X: 28395
T: Muirland Willie
R: jig
M: 6/8
K: Gminor
D|G2AB2c|dBdf3|cBcf2d|c2B A^FD|
G2AB2c|dBd fdf|aga bg^f|1 g3gdB:|2 g3g2d||
|:g2ab2a|fdf fed|cBc f2d|c2B A^FD
G2AB2c|dBdb3|aga ag^f|1 g3g2d:|2 g3g2||

